static/icons/category-effect.svg

<?xml version="1.0" encoding="UTF-8" standalone="no"?>
<svg
   xmlns:dc="http://purl.org/dc/elements/1.1/"
   xmlns:cc="http://creativecommons.org/ns#"
   xmlns:rdf="http://www.w3.org/1999/02/22-rdf-syntax-ns#"
   xmlns:svg="http://www.w3.org/2000/svg"
   xmlns="http://www.w3.org/2000/svg"
   xmlns:sodipodi="http://sodipodi.sourceforge.net/DTD/sodipodi-0.dtd"
   xmlns:inkscape="http://www.inkscape.org/namespaces/inkscape"
   version="1.1"
   width="24"
   height="24"
   viewBox="0 0 24 24"
   id="svg4"
   sodipodi:docname="category-effect.svg"
   inkscape:version="0.92.1 unknown">
  <metadata
     id="metadata10">
    <rdf:RDF>
      <cc:Work
         rdf:about="">
        <dc:format>image/svg+xml</dc:format>
        <dc:type
           rdf:resource="http://purl.org/dc/dcmitype/StillImage" />
      </cc:Work>
    </rdf:RDF>
  </metadata>
  <defs
     id="defs8" />
  <sodipodi:namedview
     pagecolor="#ffffff"
     bordercolor="#666666"
     borderopacity="1"
     objecttolerance="10"
     gridtolerance="10"
     guidetolerance="10"
     inkscape:pageopacity="0"
     inkscape:pageshadow="2"
     inkscape:window-width="640"
     inkscape:window-height="480"
     id="namedview6"
     showgrid="false"
     inkscape:zoom="15.625"
     inkscape:cx="-0.992"
     inkscape:cy="12"
     inkscape:current-layer="svg4" />
  <path
     d="M 18.363636,2 17.218182,4.5 14.727273,5.6363636 17.218182,6.7818182 18.363636,9.272727 19.5,6.7818182 22,5.6363636 19.5,4.5 M 9.2727273,4.7272727 7,9.727273 2,12 l 5,2.272727 2.2727273,5 2.2727277,-5 5,-2.272727 -5,-2.272727 m 6.818181,5 -1.145454,2.490909 -2.490909,1.145454 L 17.218182,19.5 18.363636,22 19.5,19.5 22,18.363636 19.5,17.218182"
     id="path2"
     inkscape:connector-curvature="0"
     style="stroke-width:0.90909094" />
</svg>

<svg xmlns="http://www.w3.org/2000/svg" version="1.1" viewBox="0 0 24 24">
  <path d="m18.364 2-1.146 2.5-2.491 1.1364 2.491 1.1454 1.146 2.4909 1.136-2.4909 2.5-1.1454-2.5-1.1364m-10.227.2273-2.2727 5-5 2.2727l5 2.2727 2.2727 5 2.2727-5 5-2.2727-5-2.2727m6.8182 5-1.1455 2.4909-2.4909 1.1455l2.491 1.136 1.146 2.5 1.136-2.5 2.5-1.136-2.5-1.146"/>
</svg>
